X:1
T:O Magnum Mysterium
T:D. Pedro de Cristo
T:O great mystery, and wonderful sacrament, that animals should see the new-born Lord, lying in a manger! Blessed is the Virgin whose womb was worthy to bear  Christ the Lord.
T:O Magnum Mysterium
C:D. Pedro de Cristo
Z:O great mystery, and wonderful sacrament,
Z:that animals should see the new-born Lord,
Z:lying in a manger! Blessed is the Virgin
Z:whose womb was worthy to bear  Christ the Lord.
%%score [ 1 2 3 4 ]
L:1/8
M:2/2
K:C
V:1 treble nm="Soprano" snm="S."
V:2 treble nm="Alto" snm="A."
V:3 treble-8 transpose=-12 nm="Tenor" snm="T."
V:4 bass nm="Baritone" snm="B."
V:1
 E8 | G8 | G4 G4 | A8 | G8- | G4 G4 | G8- | G8 | z4 c4 | B4 A4 | G8 | A6 A2 | G8- | G8 | z4 B4- | %15
w: O|ma-|gnum mys-|te-||* ri-|um|_|et|ad- mi-|ra-|* bi-|le|_|Sa-|
 B4 G4 | A8 | G8- | G4 ^F4 | G8 | z8 | G4 G2 F2 | E2 D2 C4 | c4 c2 B2 | A2 G2 A4 | G8 | G8 | %27
w: * cra-|men-|||tum||ut an- i-|ma- li- a|ut an- i-|ma- * *|li-|a|
 z4 G4 | A4 G2 B2 | c4 B4 | A4 A2 A2 | G4 G4 | z4 E4 | E8 | D4 E4- | E4 E4 | D4 D4 | D8 | z8 | z8 | %40
w: vi-|de- rent, vi-|de- rent|Do- mi- num|na- tum|ja-|cen-|tem in|_ prae-|se- pi-|o:|||
 z2 G2 G2 G2 | G4 E4 | z4 z2 A2 | A2 A2 A4 | G8 | z4 B4- | B2 B2 B2 B2 | G4 c2 c2 | B4 A4- | %49
w: Be- a- ta|Vir- go,|Be-|a- ta Vir-|go|cu-|* jus vis- ce-|ra me- ru|e- *|
 A4 G4 | G8 | z8 | z4 E4 | F4 G4 | A8 | G8- | G4 E4 | F8- | F4 E2 D2 | E8 || z8 | z8 | z8 | z8 | %64
w: |runt||por-|ta- re|Do-|mi-|* num|Chri-||stum.|||||
 z8 | G8 | C6 D2 | E4 F4 | G8- | G4 ^F4 | G8- | G4 F2 E2 | D4 G4 | E4 F4 | G8 | A4 G4 | z4 c4 | %77
w: |A-|ve Ma-|ri- *|||||a, gra-|ti- a|ple-|* na,|Do-|
 B4 A4 | G4 A4- | A2 G2 E4 | F8 | E8 || G8 | A4 G4 | G8 | G4 B4- | B2 B2 B2 B2 | G4 c2 c2 | %88
w: mi- nus|te- *|||cum.|Be-|a- ta|Vir-|go cu-|* jus vi- sce-|ra me- ru-|
 B4 A4- | A4 G4 | G8 | z8 | z4 E4 | F4 G4 | A8 | G8- | G4 E4 | F8- | F4 E2 D2 | E8!fine! |] %100
w: e- *||runt||por-|ta- re|Do-|mi-|* num|Chri-||stum.|
V:2
 C8- | C4 E4 | E4 E4 | F6 E2 | D4 E4 | D8 | E8 | z4 E4 | D4 C4 | D4 C2 D2 | E2 F2 G4 | F6 E2 | %12
w: O|_ ma-|gnum mys-|te- *||ri-|um|et|ad- mi-|ra- * *||* bi-|
 D8- | D8 | z4 G4- | G4 E4 | F6 E2 | D8 | D8 | z4 D4 | D2 C2 B,2 A,2 | G,4 G4 | G2 F2 E2 D2 | %23
w: le|_|Sa-|* cra-|men- *||tum|ut|an- i- ma- li-|a ut|an- i- ma- li-|
 C4 C4 | F6 E2 | D4 D4 | E8 | z4 C4 | F4 E2 G2 | G4 G4 | E4 F2 F2 | D4 E4 | z4 C4 | C8 | B,4 C4- | %35
w: a, ut|an- i-|ma- li-|a|vi-|de- rent, vi-|de- rent|Do- mi- num|na- tum|ja-|cen-|tem in|
 C4 C4 | A,4 A,4 | B,4 z2 D2 | D2 D2 D4 | B,8 | z8 | z2 E2 E2 E2 | E4 C2 E2 | E2 E2 F4 | D4 E4 | %45
w: _ prae-|se- pi-|o: Be-|a- ta Vir-|go,||Be- a- ta|Vir- go, Be-|a- ta Vir-|* go|
 z4 G4- | G2 G2 G2 G2 | E4 G2 G2 | G4 E4 | F4 D4 | E8 | z8 | z4 C4 | D6 E2 | F8 | D8 | E4 C4- | %57
w: cu-|* jus vis- ce-|ra me- ru|e- *||runt||por-|ta- re|Do-|mi-|num Chri-|
 C4 B,4 | C8- | C8 || z8 | C8 | G,6 A,2 | B,4 G,4 | A,4 B,4 | C6 B,2 | A,8 | z4 D4 | B,4 C4 | %69
w: |stum.|_||A-|ve Ma-|ri- *|||a,|gra-|ti- a|
 D6 C2 | B,2 A,2 B,4 | C8- | C4 B,4 | C8 | z4 G4 | F4 E4 | D4 C4 | z4 C4 | B,4 A,4 | C8- | C4 B,4 | %81
w: ple- *||||na,|Do-|mi- nus|te- cum,|Do-|mi- nus|te-||
 C8 || E8 | F4 E4 | D8 | E4 G4- | G2 G2 G2 G2 | E4 G2 G2 | G4 E4 | F4 D4 | E8 | z8 | z4 C4 | %93
w: cum.|Be-|a- ta|Vir-|go cu-|* jus vi- sce-|ra me- ru-|e- *||runt||por-|
 D6 E2 | F8 | D8 | E4 C4- | C4 B,4 | C8- | C8 |] %100
w: ta- re|Do-|mi-|num Chri-||stum.|_|
V:3
 G8- | G4 c4 | c4 c4 | c4 A4 | B4 c4- | c4 B4 | c8- | c8 | z8 | z4 c4 | B4 B4 | A4 c4- | c4 B2 A2 | %13
w: O|_ ma-|gnum mys-|te- *||* ri-|um|||et|ad- mi-|ra- *|* bi- *|
 B8 | z4 d4- | d4 c4 | c8- | c4 B4 | A8 | G8 | d4 d2 c2 | B2 A2 G4 | c4 c2 B2 | A2 G2 F4 | A4 c4- | %25
w: le|Sa-|* cra-|men-|||tum|ut an- i-|ma- li- a,|ut an- i-|ma- * *||
 c4 B4 | c4 G4 | A4 G4 | z4 z2 d2 | e4 d4 | c4 c2 c2 | B4 c4 | z4 G4 | G8 | G4 G4- | G4 G4 | %36
w: * li-|a vi-|de rent|vi-|de- rent|Do- mi- num|na- tum|ja-|cen-|tem in|_ prae-|
 G4 ^F4 | G8 | z4 z2 d2 | d2 d2 d4 | B8 | z2 B2 B2 B2 | c4 A2 c2 | c2 c2 A4 | B4 c4 | z4 d4- | %46
w: se- pi-|o:|Be-|a- ta Vir-|go,|Be- a- ta|Vir- go, Be-|a- ta Vir-|* go|cu-|
 d2 d2 d2 d2 | c4 e2 e2 | d4 c4- | c4 B4 | c4 G4 | A4 B4 | c8 | A4 B4 | c8- | c4 B2 A2 | G4 A4- | %57
w: * jus vis- ce-|ra me- ru|e- *||runt por-|ta- re|Do-|mi- num|Chri-|||
 A2 G2 F4 | G8- | G8 || z8 | z8 | z8 | z8 | z8 | z8 | z8 | z8 | z8 | z8 | z8 | z8 | z8 | z8 | z8 | %75
w: |stum.|_||||||||||||||||
 z8 | z8 | z8 | z8 | z8 | z8 | z8 || c8 | c4 c4 | B8 | c4 d4- | d2 d2 d2 d2 | c4 e2 e2 | d4 c4- | %89
w: |||||||Be-|a- ta|Vir-|go cu-|* jus vi- sce-|ra me- ru-|e- *|
 c4 B4 | c4 G4 | A4 B4 | c8 | A4 B4 | c8- | c4 B2 A2 | G4 A4- | A2 G2 F4 | G8- | G8 |] %100
w: |runt por-|ta- re|Do-|mi- num|Chri-||||stum.|_|
V:4
 C,8 | C,8 | C,4 C,4 | F,8 | G,8- | G,4 G,4 | C,8 | z4 C4 | B,4 A,4 | G,4 A,4 | E,8 | F,8 | G,8- | %13
w: O|ma-|gnum mys-|te-||* ri-|um|et|ad- mi-|ra- *||bi-|le|
 G,8 | z4 G,4- | G,4 C,4 | F,8 | G,8 | D,8 | G,,8 | z4 G,4 | G,2 F,2 E,2 D,2 | C,4 C4 | %23
w: _|Sa-|* cra-|men-|||tum|ut|an- i- ma- li-|a, ut|
 C2 B,2 A,2 G,2 | F,8 | G,8 | C,4 C,4 | F,4 C,4 | z4 z2 G,2 | C4 G,4 | A,4 F,2 F,2 | G,4 C,4 | %32
w: an- i- ma- *||li-|a, ve-|de- rent|vi-|de- rent|Do- mi- num|na- tum|
 z4 C,4 | C,8 | G,,4 C,4- | C,4 C,4 | D,4 D,4 | G,,8 | D,8 | z4 z2 G,2 | G,2 G,2 G,4 | C,8 | %42
w: ja-|cen-|tem in|_ prae-|se- pi-|o:|_|Be-|a- ta Vir-|go,|
 z2 A,2 A,2 A,2 | A,4 F,4 | G,4 C,4 | z4 G,4- | G,2 G,2 G,2 G,2 | C,4 C2 C2 | G,4 A,4 | F,4 G,4 | %50
w: Be- a- ta|Vir- *|* go,|cu-|* jus vis- ce-|ra me- ru|e- *||
 C,4 E,4 | F,4 G,4 | A,8 | D,4 G,4 | F,8 | G,8 | C,8 | D,8 | C,8- | C,8 || G,8 | C,6 D,2 | %62
w: runt por-|ta- re|Do-|mi- num|Chri-||||stum.|_|A-|ve Ma-|
 E,4 C,4 | D,4 E,4 | F,4 G,4 | C,4 E,4 | F,6 D,2 | C,4 D,4 | E,8 | D,8 | G,,4 G,4 | E,4 F,4 | G,8 | %73
w: ri- *|||a, A-|ve Ma-|ri- *|||a, Do-|mi- nus|te-|
 A,8 | G,8 | z4 C4 | B,4 A,4 | G,4 A,4 | E,4 F,4- | F,2 E,2 C,4 | D,8 | C,8 || C,8 | F,4 C,4 | %84
w: |cum,|Do-|mi- nus|te- *||||cum.|Be-|a- ta|
 G,8 | C,4 G,4- | G,2 G,2 G,2 G,2 | C,4 C2 C2 | G,4 A,4 | F,4 G,4 | C,4 E,4 | F,4 G,4 | A,8 | %93
w: Vir-|go cu-|* jus vi- sce-|ra me- ru-|e- *||runt por-|ta- re|Do-|
 D,4 G,4 | F,8 | G,8 | C,8 | D,8 | C,8- | C,8 |] %100
w: mi- num|Chri-||||stum.|_|

